X: 1
T: I'm Still Not Fed Up With the Pacific Ocean
C: Ola B\"ackstr\"om
%R: air
Z: 2019 John Chambers <jc:trillian.mit.edu>
M: C
L: 1/8
K: D
|:\
"D"F3F- FDEG | F3F- FDEG | F2ED CDCD | "G"B,3B,- B,2A,2 ||
"D"F3F- FDEG | F3F- FDEG | F2ED CDB,C | D3D- D4 :|
|:\
"D"A2GF EDCD | "G"d2cd BAGF | "D"A2GF EDCD | "G"B,3B,- B,2A,2 ||
"D"A2GF EDCD | "G"d2cd BAGF | "D"A2GF "A"EDCE | "D"D3D- D4 :|
|:\
"D"f3f- fdeg | f2ed cdcd | "G"B3B- BA(c{d}c) | B3B- BAde ||
"D"f3f- fdeg | f2ed cdBc | d3d- dedc | d3d- d4 :|
